X:956
T:The Gaelic Club
N:"Collected by F.O'Neill"
B:O'Neill's 956
Z:Transcribed by Dan G. Petersen, dangp@post6.tele.dk
Z:Corrected by John Chambers
M:6/8
L:1/8
K:Am
(A/B/) | cBA AGE | ABA ABc | BAG BdG | Bdg GAB |
cBA AGE | ABA c2d | efe dcB | cAA A2 :|
B | ceg gec | ceg dBG | ceg gec | BGG G2(A/B/) |
cBA AGE | ABA c2d | efe dcB | cAA A2 :|


